icons/op-ticket-checked-24.svg

<svg width="24" height="24" viewBox="0 0 24 24" fill="none" xmlns="http://www.w3.org/2000/svg">
<path d="M12.7542 20L9.70902 16.5625C9.39509 16.2188 9.45788 15.7188 9.86599 15.4375C10.2427 15.1562 10.8392 15.2188 11.1531 15.5625L12.6914 17.3125L17.3376 11.6562C17.6516 11.2812 18.2167 11.2188 18.6248 11.4688C19.0329 11.75 19.1271 12.25 18.8131 12.625L12.7542 20ZM13.0367 5.4375L16.333 8.71875L17.369 7.71875L13.6332 4H5V20H8.98697V18.5625H6.4441V5.4375H13.0367Z" fill="black"/>
</svg>

<svg xmlns="http://www.w3.org/2000/svg" width="24" height="24" viewBox="0 0 24 24"><path d="m12.754 20-3.045-3.438c-.314-.343-.251-.843.157-1.124.377-.282.973-.219 1.287.124l1.538 1.75 4.647-5.656c.314-.375.879-.437 1.287-.187.408.281.502.781.188 1.156L12.754 20Zm.283-14.562 3.296 3.281 1.036-1L13.633 4H5v16h3.987v-1.438H6.444V5.438h6.593Z"/></svg>
